X: 29473
T: Night We Had Bears, The
R: reel
M: 4/4
K: Amajor
FcBF AF F/F/F|AFAB BABc|dD D/D/D ~B3c|BAFE FABA|
FcBF AF F/F/F|AFAB BABc|1 d3A ~B3c|BE E/E/E cBAE:|2 d3e efec|ABBA Bcdf||
e2 ce aecB|BABc BAce|fAA[eE] [fF][gD][gE]B|B[gE]B[gE] [aA][gE][fF][aA]|
e2 ce aecB|BABc BAce|fecB B2 ce|fecB BAdf|
e2 ce aecB|BABc BAce|fAA[eE] [fF][gD][gE]B|B[gE]B[gE] [aA][gE][fF][aA]|
e2 d2 c3B|cdcA F3E|FcAF dcAe|dcfe dc[Gd][Ec]||

